fs/laser_tool_20_regular.svg

<svg viewBox="0 0 20 20" fill="none" xmlns="http://www.w3.org/2000/svg" height="1em" width="1em">
  <path d="M4 2.5C4 2.22386 3.77614 2 3.5 2C3.22386 2 3 2.22386 3 2.5V5C3 5.74028 3.4022 6.38663 4 6.73244V7.5C4 8.32843 4.67157 9 5.5 9H9.5V12.5C9.5 12.7761 9.72386 13 10 13C10.2761 13 10.5 12.7761 10.5 12.5V9H14.5C15.3284 9 16 8.32843 16 7.5V6.73244C16.5978 6.38663 17 5.74028 17 5V2.5C17 2.22386 16.7761 2 16.5 2C16.2239 2 16 2.22386 16 2.5V5C16 5.55228 15.5523 6 15 6H5C4.44772 6 4 5.55228 4 5V2.5ZM5 7H15V7.5C15 7.77614 14.7761 8 14.5 8H5.5C5.22386 8 5 7.77614 5 7.5V7Z" fill="#212121"/>
  <path d="M5.5 14C5.22386 14 5 14.2239 5 14.5C5 14.7761 5.22386 15 5.5 15H7C7.27614 15 7.5 14.7761 7.5 14.5C7.5 14.2239 7.27614 14 7 14H5.5Z" fill="#212121"/>
  <path d="M12.5 14.5C12.5 14.2239 12.7239 14 13 14H14.5C14.7761 14 15 14.2239 15 14.5C15 14.7761 14.7761 15 14.5 15H13C12.7239 15 12.5 14.7761 12.5 14.5Z" fill="#212121"/>
  <path d="M10 15C10.2761 15 10.5 14.7761 10.5 14.5C10.5 14.2239 10.2761 14 10 14C9.72386 14 9.5 14.2239 9.5 14.5C9.5 14.7761 9.72386 15 10 15Z" fill="#212121"/>
  <path d="M10 16C10.2761 16 10.5 16.2239 10.5 16.5V18.5C10.5 18.7761 10.2761 19 10 19C9.72386 19 9.5 18.7761 9.5 18.5V16.5C9.5 16.2239 9.72386 16 10 16Z" fill="#212121"/>
  <path d="M8.85355 15.8536C9.04882 15.6583 9.04882 15.3417 8.85355 15.1464C8.65829 14.9512 8.34171 14.9512 8.14645 15.1464L6.64645 16.6464C6.45118 16.8417 6.45118 17.1583 6.64645 17.3536C6.84171 17.5488 7.15829 17.5488 7.35355 17.3536L8.85355 15.8536Z" fill="#212121"/>
  <path d="M11.1464 15.1464C10.9512 15.3417 10.9512 15.6583 11.1464 15.8536L12.6464 17.3536C12.8417 17.5488 13.1583 17.5488 13.3536 17.3536C13.5488 17.1583 13.5488 16.8417 13.3536 16.6464L11.8536 15.1464C11.6583 14.9512 11.3417 14.9512 11.1464 15.1464Z" fill="#212121"/>
</svg>

<svg viewBox="0 0 20 20" fill="none" xmlns="http://www.w3.org/2000/svg" height="1em" width="1em">
  <path d="M4 2.5a.5.5 0 0 0-1 0V5a2 2 0 0 0 1 1.732V7.5A1.5 1.5 0 0 0 5.5 9h4v3.5a.5.5 0 0 0 1 0V9h4A1.5 1.5 0 0 0 16 7.5v-.768A2 2 0 0 0 17 5V2.5a.5.5 0 0 0-1 0V5a1 1 0 0 1-1 1H5a1 1 0 0 1-1-1V2.5ZM5 7h10v.5a.5.5 0 0 1-.5.5h-9a.5.5 0 0 1-.5-.5V7Zm.5 7a.5.5 0 0 0 0 1H7a.5.5 0 0 0 0-1H5.5Zm7 .5a.5.5 0 0 1 .5-.5h1.5a.5.5 0 0 1 0 1H13a.5.5 0 0 1-.5-.5ZM10 15a.5.5 0 1 0 0-1 .5.5 0 0 0 0 1Zm0 1a.5.5 0 0 1 .5.5v2a.5.5 0 0 1-1 0v-2a.5.5 0 0 1 .5-.5Zm-1.146-.146a.5.5 0 0 0-.708-.708l-1.5 1.5a.5.5 0 0 0 .708.708l1.5-1.5Zm2.292-.708a.5.5 0 0 0 0 .708l1.5 1.5a.5.5 0 0 0 .708-.708l-1.5-1.5a.5.5 0 0 0-.708 0Z" fill="#212121"/>
</svg>
